static/images/pieces/mono/makruk-bishop.svg

<svg clip-rule="evenodd" fill-rule="evenodd" height="177.17" image-rendering="optimizeQuality" shape-rendering="geometricPrecision" viewBox="0 0 50 50" width="177.17" xmlns="http://www.w3.org/2000/svg"><g fill="#888"><g stroke="#888" stroke-width="1.69329"><path d="m24.663645 4.7976522-3.497533 7.0553708h2.822148 1.411074 2.822148z"/><path d="m12.699667 45.718802h23.98826v-4.233222h-23.98826z"/><path d="m19.755038 37.252357-4.233223 4.233223h18.343964l-4.233222-4.233223z"/><path d="m19.755037 11.853023h9.877519l1.411074 2.822148h-12.699667z"/><path d="m16.932889 14.675171h15.521815l1.411074 2.822148h-18.343963z"/><path d="m14.110741 17.49732c-4.7599905 6.123599-4.8955303 12.568482 5.644296 19.755037h9.877519c10.099092-6.926421 10.756872-13.460596 5.644297-19.755037z"/></g><path d="m62 144-6 6v5h63v-5l-6-6z" transform="scale(.28221482)"/><path d="m19.472823 38.663431 2.822148-2.822148h4.797652l2.822148 2.822148z"/><path d="m14.392956 17.779534-1.128859 1.693289h22.859401l-1.12886-1.693289z"/><path d="m17.779534 14.957386-.846645 1.693289 15.521816-.000001-.846645-1.693288z"/><path d="m20.601682 12.135238-.846644 1.693289h9.877519l-.846645-1.693289z"/></g></svg>

<?xml version="1.0" encoding="UTF-8" standalone="no"?>
<svg
   xmlns:dc="http://purl.org/dc/elements/1.1/"
   xmlns:cc="http://creativecommons.org/ns#"
   xmlns:rdf="http://www.w3.org/1999/02/22-rdf-syntax-ns#"
   xmlns:svg="http://www.w3.org/2000/svg"
   xmlns="http://www.w3.org/2000/svg"
   xmlns:sodipodi="http://sodipodi.sourceforge.net/DTD/sodipodi-0.dtd"
   xmlns:inkscape="http://www.inkscape.org/namespaces/inkscape"
   width="177.17"
   height="177.17"
   shape-rendering="geometricPrecision"
   image-rendering="optimizeQuality"
   fill-rule="evenodd"
   clip-rule="evenodd"
   viewBox="0 0 50 50"
   version="1.1"
   id="svg915"
   sodipodi:docname="makruk-bishop.svg"
   inkscape:version="0.92.5 (2060ec1f9f, 2020-04-08)">
  <metadata
     id="metadata919">
    <rdf:RDF>
      <cc:Work
         rdf:about="">
        <dc:format>image/svg+xml</dc:format>
        <dc:type
           rdf:resource="http://purl.org/dc/dcmitype/StillImage" />
        <dc:title></dc:title>
      </cc:Work>
    </rdf:RDF>
  </metadata>
  <sodipodi:namedview
     pagecolor="#ffffff"
     bordercolor="#666666"
     borderopacity="1"
     objecttolerance="10"
     gridtolerance="10"
     guidetolerance="10"
     inkscape:pageopacity="0"
     inkscape:pageshadow="2"
     inkscape:window-width="1848"
     inkscape:window-height="1016"
     id="namedview917"
     showgrid="true"
     inkscape:zoom="2"
     inkscape:cx="125.64654"
     inkscape:cy="56.288112"
     inkscape:window-x="72"
     inkscape:window-y="27"
     inkscape:window-maximized="1"
     inkscape:current-layer="svg915"
     inkscape:pagecheckerboard="0">
    <inkscape:grid
       type="xygrid"
       id="grid276" />
  </sodipodi:namedview>
  <defs
     id="defs905">
    <linearGradient
       id="linearGradient7081"
       inkscape:swatch="solid">
      <stop
         style="stop-color:#ffffff;stop-opacity:1;"
         offset="0"
         id="stop7079" />
    </linearGradient>
    <linearGradient
       id="0"
       x1="21.376"
       x2="77.64"
       gradientUnits="userSpaceOnUse">
      <stop
         stop-color="#fff"
         id="stop4284" />
      <stop
         offset="1"
         stop-color="#fff"
         stop-opacity="0"
         id="stop4286" />
    </linearGradient>
    <linearGradient
       id="0-3"
       x1="21.376"
       x2="77.64"
       gradientUnits="userSpaceOnUse">
      <stop
         stop-color="#fff"
         id="stop900" />
      <stop
         offset="1"
         stop-color="#fff"
         stop-opacity="0"
         id="stop902" />
    </linearGradient>
  </defs>
  <path
     style="opacity:1;fill:#888888;fill-opacity:1;stroke:#888888;stroke-width:1.69329;stroke-miterlimit:4;stroke-dasharray:none;stroke-opacity:1"
     d="m 24.663645,4.7976522 -3.497533,7.0553708 h 2.822148 1.411074 2.822148 z"
     id="path473"
     sodipodi:nodetypes="cccccc" />
  <path
     style="opacity:1;fill:#888888;fill-opacity:1;stroke:#888888;stroke-width:1.69329;stroke-miterlimit:4;stroke-dasharray:none;stroke-opacity:1"
     d="m 12.699667,45.718802 h 23.98826 V 41.48558 h -23.98826 z"
     id="path2759"
     sodipodi:nodetypes="ccccc" />
  <path
     style="opacity:1;fill:#888888;fill-opacity:1;stroke:#888888;stroke-width:1.69329;stroke-miterlimit:4;stroke-dasharray:none;stroke-opacity:1"
     d="M 19.755038,37.252357 15.521815,41.48558 H 33.865779 L 29.632557,37.252357 Z"
     id="path13572"
     sodipodi:nodetypes="ccccc" />
  <path
     style="opacity:1;fill:#888888;fill-opacity:1;stroke:#888888;stroke-width:1.69329;stroke-miterlimit:4;stroke-dasharray:none;stroke-opacity:1"
     d="m 19.755037,11.853023 h 9.877519 l 1.411074,2.822148 H 18.343963 Z"
     id="path14454" />
  <path
     style="opacity:1;fill:#888888;fill-opacity:1;stroke:#888888;stroke-width:1.69329;stroke-miterlimit:4;stroke-dasharray:none;stroke-opacity:1"
     d="m 16.932889,14.675171 h 15.521815 l 1.411074,2.822148 H 15.521815 Z"
     id="path20540" />
  <path
     style="opacity:1;fill:#888888;fill-opacity:1;stroke:#888888;stroke-width:1.69329;stroke-miterlimit:4;stroke-dasharray:none;stroke-opacity:1"
     d="m 14.110741,17.49732 c -4.7599905,6.123599 -4.8955303,12.568482 5.644296,19.755037 h 9.877519 C 39.731648,30.325936 40.389428,23.791761 35.276853,17.49732 Z"
     id="path21922"
     sodipodi:nodetypes="ccccc" />
  <path
     id="path34730"
     style="fill:#888888;fill-opacity:1;stroke:#888888;stroke-width:0;stroke-miterlimit:4;stroke-dasharray:none;stroke-opacity:1"
     d="M 62 144 L 56 150 L 56 155 L 119 155 L 119 150 L 113 144 L 62 144 z "
     transform="scale(0.28221482)" />
  <path
     style="fill:#888888;fill-opacity:1;stroke:#888888;stroke-width:0;stroke-miterlimit:4;stroke-dasharray:none;stroke-opacity:1"
     d="m 19.472823,38.663431 2.822148,-2.822148 h 4.797652 l 2.822148,2.822148 z"
     id="path39735"
     sodipodi:nodetypes="ccccc" />
  <path
     style="fill:#888888;fill-opacity:1;stroke:#888888;stroke-width:0;stroke-miterlimit:4;stroke-dasharray:none;stroke-opacity:1"
     d="m 14.392956,17.779534 -1.128859,1.693289 h 22.859401 l -1.12886,-1.693289 z"
     id="path41870"
     sodipodi:nodetypes="ccccc" />
  <path
     style="fill:#888888;fill-opacity:1;stroke:#888888;stroke-width:0;stroke-miterlimit:4;stroke-dasharray:none;stroke-opacity:1"
     d="m 17.779534,14.957386 -0.846645,1.693289 15.521816,-1e-6 -0.846645,-1.693288 z"
     id="path41870-5"
     sodipodi:nodetypes="ccccc" />
  <path
     style="fill:#888888;fill-opacity:1;stroke:#888888;stroke-width:0;stroke-miterlimit:4;stroke-dasharray:none;stroke-opacity:1"
     d="m 20.601682,12.135238 -0.846644,1.693289 h 9.877519 l -0.846645,-1.693289 z"
     id="path42751"
     sodipodi:nodetypes="ccccc" />
</svg>
